file/groupe-psa.svg

<svg clip-rule="evenodd" fill-rule="evenodd" stroke-linejoin="round" stroke-miterlimit="1.41421" viewBox="0 0 560 400" xmlns="http://www.w3.org/2000/svg"><path d="m323 51.8c-.6-1.1-1.7-1.7-2.8-1.7h-22c-1.1 0-2.2.6-2.8 1.7l-38.7 73.5c-.6-6.4-4.5-12.8-9.7-16.8-8.6-6.1-23.6-10.3-40.6-11.7-9.7-.8-38.4-2.2-47.3-5.3-6.7-2.5-10-6.2-10-11.5 0-14.5 27.3-15.6 36.4-15.6 20 0 35.6 4.2 48.7 10.9 1.4.8 3.1.3 3.9-1.1l5.3-10.1c.8-1.7.6-3.6-1.4-4.8-15.3-8.6-33.4-12.3-54.5-12.3-15.9 0-31.2 2.2-43.7 9.8-2.5 1.4-4.5 3.1-6.4 4.8-5.6-7.5-17.3-11.5-29.2-11.5h-86.9c-2 0-3.3 1.4-3.3 3.1v110.6c0 2 1.4 3.4 3.3 3.4h13.1c1.7 0 3.1-1.4 3.1-3.4v-93.3c0-1.7 1.4-3.1 3.1-3.1h62.6c15.6 0 23.6 6.4 23.6 19.6 0 12-7.5 18.2-22.5 18.2h-45.7l-9.2 17.3h54.6c13.9 0 24.5-3.1 31.7-9.2 2.5-2.2 4.5-4.8 6.1-7.5 7.8 3.6 21.1 6.4 40.3 7.5 21.7 1.4 35.1 2.8 40.1 4.2 9.5 2.5 14.2 7.3 14.2 14.8 0 17.9-27.8 20.7-42.3 20.7-19.8 0-39.2-3.9-55.7-14.8-1.7-1.1-3.1-.8-3.9.6l-5.8 10.9c-1.1 2-.3 3.4.8 4.2 20.3 13.1 43.7 16.2 65.7 16.2 14.7 0 35.9-3.9 42.9-8.9l-1.7 3.1c-.6 1.1 0 3.1 2.2 3.1h15.4c1.1 0 2.2-.8 2.8-1.7l49.2-93.8c.6-1.1 1.1-1.7 2.5-1.7h1.7c1.4 0 1.9.6 2.5 1.7l25.3 48.1c1.1 2.2.3 3.6-1.9 3.6h-41.7l-9.2 17.3h62.1c1.1 0 2.2.6 2.8 1.7l11.7 22.9c.6.8 1.7 1.7 2.8 1.7h15.3c2.5 0 2.5-2.2 1.9-3.6zm-4.5 200.3h-22.5v-21.5h21.7v3.1h-18.1v5.6h15.6v3.4h-15.6v6.4h18.9zm-47.3-11.4c2.8 0 4.2-1.1 4.2-3.4 0-2.5-1.4-3.6-4.5-3.6h-12.8v7zm.6-10.1c2.2 0 3.9.6 5.3 1.7 1.4 1.4 1.9 2.8 1.9 5s-.6 3.6-1.9 5c-1.4 1.1-3.3 1.7-5.8 1.7h-13.1v8.1h-3.3v-21.5zm-35.4 14.5c0 2.2-1.1 4.2-3.3 5.6s-5.3 2.2-8.9 2.2-6.7-.8-8.9-2.2-3.3-3.4-3.3-5.6v-14.5h3.6v13.7c0 1.7.6 3.1 2.2 3.9 1.4.8 3.6 1.4 6.4 1.4s5-.6 6.4-1.4 2.2-2.2 2.2-3.9v-13.7h3.6zm-43.9-3.9c0-2.5-1.1-4.5-3.3-6.1-2-1.4-4.2-2-7-2s-5.3.8-7.2 2.2c-2 1.7-2.8 3.6-2.8 5.9 0 2.5.8 4.5 2.8 6.2 1.7 1.4 4.2 2.2 7.2 2.2 3.1 0 5.6-.8 7.5-2.2 1.7-1.7 2.8-3.7 2.8-6.2zm3.6 0c0 3.6-1.4 6.4-4.5 8.7-2.5 2-5.6 3.1-9.5 3.1-3.6 0-7-1.1-9.5-3.1-2.8-2.2-4.5-5-4.5-8.7 0-3.4 1.7-6.1 4.5-8.4 2.8-2 5.8-3.1 9.5-3.1 3.9 0 7 1.1 9.5 3.1 3.1 2.3 4.5 5.1 4.5 8.4zm-51.5-.5c2.8 0 4.2-1.1 4.2-3.4 0-2.5-1.4-3.6-4.5-3.6h-12.5v7zm8.1 11.4h-4.2l-5.8-8.1h-10.9v8.1h-3.6v-21.5h17c2.2 0 4.2.6 5.3 1.7 1.4 1.4 2 3.1 2 5 0 2-.6 3.4-1.4 4.5-1.1 1.1-2.5 1.7-4.2 2zm-42-11.2c0 3.6-1.1 6.4-3.6 8.7-2.5 2.2-5.8 3.4-10 3.4-3.9 0-7-1.1-9.5-3.1-3.1-2.2-4.5-5-4.5-8.7 0-3.4 1.4-6.1 4.5-8.4 2.5-2 5.8-3.1 9.7-3.1 4.7 0 8.6 1.7 11.7 5.3l-3.3 1.7c-2.2-2.5-5-3.6-8.6-3.6-2.8 0-5 .6-7 2-2.2 1.7-3.3 3.6-3.3 6.1s1.1 4.5 2.8 6.2c2 1.4 4.5 2.2 7.5 2.2 4.7 0 7.8-2 9.2-5.6h-10v-3.4h14.5zm-26.7-39.9h234.6v3.1h-234.6z" fill="#2a385a" fill-rule="nonzero" transform="matrix(.970874 0 0 .970874 85.7623 54.3689)"/></svg>

<?xml version="1.0" encoding="UTF-8" standalone="no"?>
<!DOCTYPE svg PUBLIC "-//W3C//DTD SVG 1.1//EN" "http://www.w3.org/Graphics/SVG/1.1/DTD/svg11.dtd">
<svg width="100%" height="100%" viewBox="0 0 560 400" version="1.1" xmlns="http://www.w3.org/2000/svg" xmlns:xlink="http://www.w3.org/1999/xlink" xml:space="preserve" xmlns:serif="http://www.serif.com/" style="fill-rule:evenodd;clip-rule:evenodd;stroke-linejoin:round;stroke-miterlimit:1.41421;">
    <g id="blue" transform="matrix(0.970874,0,0,0.970874,85.7623,54.3689)">
        <path d="M323,51.8C322.4,50.7 321.3,50.1 320.2,50.1L298.2,50.1C297.1,50.1 296,50.7 295.4,51.8L256.7,125.3C256.1,118.9 252.2,112.5 247,108.5C238.4,102.4 223.4,98.2 206.4,96.8C196.7,96 168,94.6 159.1,91.5C152.4,89 149.1,85.3 149.1,80C149.1,65.5 176.4,64.4 185.5,64.4C205.5,64.4 221.1,68.6 234.2,75.3C235.6,76.1 237.3,75.6 238.1,74.2L243.4,64.1C244.2,62.4 244,60.5 242,59.3C226.7,50.7 208.6,47 187.5,47C171.6,47 156.3,49.2 143.8,56.8C141.3,58.2 139.3,59.9 137.4,61.6C131.8,54.1 120.1,50.1 108.2,50.1L21.3,50.1C19.3,50.1 18,51.5 18,53.2L18,163.8C18,165.8 19.4,167.2 21.3,167.2L34.4,167.2C36.1,167.2 37.5,165.8 37.5,163.8L37.5,70.5C37.5,68.8 38.9,67.4 40.6,67.4L103.2,67.4C118.8,67.4 126.8,73.8 126.8,87C126.8,99 119.3,105.2 104.3,105.2L58.6,105.2L49.4,122.5L104,122.5C117.9,122.5 128.5,119.4 135.7,113.3C138.2,111.1 140.2,108.5 141.8,105.8C149.6,109.4 162.9,112.2 182.1,113.3C203.8,114.7 217.2,116.1 222.2,117.5C231.7,120 236.4,124.8 236.4,132.3C236.4,150.2 208.6,153 194.1,153C174.3,153 154.9,149.1 138.4,138.2C136.7,137.1 135.3,137.4 134.5,138.8L128.7,149.7C127.6,151.7 128.4,153.1 129.5,153.9C149.8,167 173.2,170.1 195.2,170.1C209.9,170.1 231.1,166.2 238.1,161.2L236.4,164.3C235.8,165.4 236.4,167.4 238.6,167.4L254,167.4C255.1,167.4 256.2,166.6 256.8,165.7L306,71.9C306.6,70.8 307.1,70.2 308.5,70.2L310.2,70.2C311.6,70.2 312.1,70.8 312.7,71.9L338,120C339.1,122.2 338.3,123.6 336.1,123.6L294.4,123.6L285.2,140.9L347.3,140.9C348.4,140.9 349.5,141.5 350.1,142.6L361.8,165.5C362.4,166.3 363.5,167.2 364.6,167.2L379.9,167.2C382.4,167.2 382.4,165 381.8,163.6L323,51.8ZM318.5,252.1L296,252.1L296,230.6L317.7,230.6L317.7,233.7L299.6,233.7L299.6,239.3L315.2,239.3L315.2,242.7L299.6,242.7L299.6,249.1L318.5,249.1L318.5,252.1ZM271.2,240.7C274,240.7 275.4,239.6 275.4,237.3C275.4,234.8 274,233.7 270.9,233.7L258.1,233.7L258.1,240.7L271.2,240.7ZM271.8,230.6C274,230.6 275.7,231.2 277.1,232.3C278.5,233.7 279,235.1 279,237.3C279,239.5 278.4,240.9 277.1,242.3C275.7,243.4 273.8,244 271.3,244L258.2,244L258.2,252.1L254.9,252.1L254.9,230.6L271.8,230.6ZM236.4,245.1C236.4,247.3 235.3,249.3 233.1,250.7C230.9,252.1 227.8,252.9 224.2,252.9C220.6,252.9 217.5,252.1 215.3,250.7C213.1,249.3 212,247.3 212,245.1L212,230.6L215.6,230.6L215.6,244.3C215.6,246 216.2,247.4 217.8,248.2C219.2,249 221.4,249.6 224.2,249.6C227,249.6 229.2,249 230.6,248.2C232,247.4 232.8,246 232.8,244.3L232.8,230.6L236.4,230.6L236.4,245.1ZM192.5,241.2C192.5,238.7 191.4,236.7 189.2,235.1C187.2,233.7 185,233.1 182.2,233.1C179.4,233.1 176.9,233.9 175,235.3C173,237 172.2,238.9 172.2,241.2C172.2,243.7 173,245.7 175,247.4C176.7,248.8 179.2,249.6 182.2,249.6C185.3,249.6 187.8,248.8 189.7,247.4C191.4,245.7 192.5,243.7 192.5,241.2ZM196.1,241.2C196.1,244.8 194.7,247.6 191.6,249.9C189.1,251.9 186,253 182.1,253C178.5,253 175.1,251.9 172.6,249.9C169.8,247.7 168.1,244.9 168.1,241.2C168.1,237.8 169.8,235.1 172.6,232.8C175.4,230.8 178.4,229.7 182.1,229.7C186,229.7 189.1,230.8 191.6,232.8C194.7,235.1 196.1,237.9 196.1,241.2ZM144.6,240.7C147.4,240.7 148.8,239.6 148.8,237.3C148.8,234.8 147.4,233.7 144.3,233.7L131.8,233.7L131.8,240.7L144.6,240.7ZM152.7,252.1L148.5,252.1L142.7,244L131.8,244L131.8,252.1L128.2,252.1L128.2,230.6L145.2,230.6C147.4,230.6 149.4,231.2 150.5,232.3C151.9,233.7 152.5,235.4 152.5,237.3C152.5,239.3 151.9,240.7 151.1,241.8C150,242.9 148.6,243.5 146.9,243.8L152.7,252.1ZM110.7,240.9C110.7,244.5 109.6,247.3 107.1,249.6C104.6,251.8 101.3,253 97.1,253C93.2,253 90.1,251.9 87.6,249.9C84.5,247.7 83.1,244.9 83.1,241.2C83.1,237.8 84.5,235.1 87.6,232.8C90.1,230.8 93.4,229.7 97.3,229.7C102,229.7 105.9,231.4 109,235L105.7,236.7C103.5,234.2 100.7,233.1 97.1,233.1C94.3,233.1 92.1,233.7 90.1,235.1C87.9,236.8 86.8,238.7 86.8,241.2C86.8,243.7 87.9,245.7 89.6,247.4C91.6,248.8 94.1,249.6 97.1,249.6C101.8,249.6 104.9,247.6 106.3,244L96.3,244L96.3,240.6L110.8,240.6L110.7,240.9ZM84,201L318.6,201L318.6,204.1L84,204.1L84,201Z" style="fill:rgb(42,56,90);fill-rule:nonzero;"/>
    </g>
</svg>
